X:21186 
T:STEAM PACKET (reel), The 
B:DMI.0517
Z:Nordberg/Black
R:reel
%Q:1/4=180
M:C|
L:1/8
K:G
"D mix"
B|AGG2 AGFD|DGG2 AdcA|BGGB AFDE|FEFG AdcB|
AGG2 AGFD|DGG2 AdcA|BGGB AFDE|FEFG Adc :|
e|dgg2 agg2|dgfg fdcA|dgg2 agg2|dcde fdcA|
dgg2 agg2|dgge f2fg|afge fdec|1 "thru"dcde fdc:|
[2 "final"dcBc AGFE|D4z4||

%%%

